web/themes/custom/oh_my_pasta/images/icons/calendar.svg

<svg width="24" height="24" viewBox="0 0 24 24" fill="currentColor" xmlns="http://www.w3.org/2000/svg">
<path d="M22.1333 2.56012L19.0181 2.56012V1.92013C19.0181 1.47834 18.5996 1.12012 18.1577 1.12012C17.7159 1.12012 17.28 1.47834 17.28 1.92013V2.56012H6.72V1.92013C6.72 1.47834 6.30144 1.12012 5.8596 1.12012C5.41776 1.12012 5 1.47829 5 1.92013V2.56012H1.86666C0.835734 2.56012 0 3.39585 0 4.42682V6.56015C0 6.70738 0.119391 6.82682 0.266672 6.82682H23.7333C23.8806 6.82682 24 6.70743 24 6.56015V4.42682C24 3.39585 23.1643 2.56012 22.1333 2.56012Z"/>
<path d="M23.7333 8.42673H0.266672C0.119438 8.42673 0 8.54612 0 8.69341V21.0139C0 22.0445 0.8355 22.8801 1.86614 22.8801H22.1339C23.1645 22.8801 24 22.0446 24 21.0139V8.69341C24 8.54612 23.8806 8.42673 23.7333 8.42673Z"/>
</svg>

<svg width="24" height="24" fill="currentColor" xmlns="http://www.w3.org/2000/svg"><path d="M22.133 2.56h-3.115v-.64c0-.442-.418-.8-.86-.8s-.878.358-.878.8v.64H6.72v-.64c0-.442-.419-.8-.86-.8-.442 0-.86.358-.86.8v.64H1.867A1.867 1.867 0 000 4.427V6.56c0 .147.12.267.267.267h23.466c.148 0 .267-.12.267-.267V4.427a1.867 1.867 0 00-1.867-1.867zm1.6 5.867H.267A.267.267 0 000 8.693v12.32c0 1.031.836 1.867 1.866 1.867h20.268c1.03 0 1.866-.835 1.866-1.866V8.694a.267.267 0 00-.267-.267z"/></svg>
